Dominus_Dark_Funeral/scalable/apps/makehuman.svg

<svg xmlns="http://www.w3.org/2000/svg" xmlns:xlink="http://www.w3.org/1999/xlink" width="48" height="48" viewBox="0 0 12.7 12.7"><defs><linearGradient id="d"><stop offset="0" stop-color="gray"/><stop offset="1" stop-color="#333"/></linearGradient><linearGradient id="c"><stop offset="0"/><stop offset="1" stop-opacity="0"/></linearGradient><linearGradient id="a"><stop offset="0" stop-color="#000003"/><stop offset="1" stop-color="#00000a" stop-opacity="0"/></linearGradient><linearGradient id="b"><stop offset="0" stop-color="#000004"/><stop offset="1" stop-opacity="0"/></linearGradient><linearGradient xlink:href="#c" id="f" gradientUnits="userSpaceOnUse" gradientTransform="translate(-1.06 -.34) scale(1.15304)" x1="2.87" y1=".48" x2="11.89" y2="11.63"/><radialGradient xlink:href="#d" id="e" cx="3.96" cy="3.14" fx="3.96" fy="3.14" r="5.35" gradientTransform="matrix(1.362 .40614 -.33453 1.12183 -.38 -2.54)" gradientUnits="userSpaceOnUse"/></defs><path d="M6.82.1a6.75 6.75 0 0 0-.47 0c-.77 0-1.46.08-2.08.22a6.03 6.03 0 0 0-1.61.65 3.67 3.67 0 0 0-.3.22 3.67 3.67 0 0 0-.27.24 3.67 3.67 0 0 0-.25.27 3.67 3.67 0 0 0-.22.3 3.67 3.67 0 0 0-.19.3 3.67 3.67 0 0 0-.16.34 3.67 3.67 0 0 0-.12.34 3.67 3.67 0 0 0-.09.36 3.67 3.67 0 0 0-.05.36 3.67 3.67 0 0 0-.01.37 3.67 3.67 0 0 0 0 .15c0 .48.1 1 .25 1.52s.36 1.04.58 1.52a18.1 18.1 0 0 0 2.83 4.32c.34.35.64.6.92.78.28.17.53.25.77.25s.5-.08.77-.25c.28-.17.58-.43.92-.78a15.2 15.2 0 0 0 1.65-2.15c.23-.37.73-1.2 1.18-2.17.22-.48.42-1 .57-1.52a4.63 4.63 0 0 0 .14-2.52 3.74 3.74 0 0 0-.83-1.64c-.2-.23-.44-.43-.71-.61a6.75 6.75 0 0 0-.6-.3A6.75 6.75 0 0 0 8.8.43a6.75 6.75 0 0 0-.65-.18 6.75 6.75 0 0 0-.67-.11 6.75 6.75 0 0 0-.67-.05z" color="#000" fill="url(#e)"/><path d="M6.28 12.59l.07.02c.24 0 .5-.08.77-.25.28-.17.58-.43.92-.78a15.2 15.2 0 0 0 1.65-2.15c.23-.37.73-1.2 1.18-2.17.22-.48.42-1 .57-1.52a4.63 4.63 0 0 0 .14-2.52c-.04-.2-.12-.37-.19-.54l-.23-.24-2.6 1.28L6.83 2l-1.1.95 1.44 1.43.03.79-1.3-1.3-4.53-1.43L5.4 6.48l.5 5.74z" opacity=".51" fill="url(#f)"/><path d="M6.27 1.74a.7.7 0 0 0-.7.7.7.7 0 0 0 .7.7.7.7 0 0 0 .7-.7.7.7 0 0 0-.7-.7zm-4.9.7zm0 0l3.15 2.1 1.4 7.68V6.3h.7v5.93l1.4-7.68 3.14-2.1L6.6 3.88v1.36h-.7V3.88z" fill="#fd971f"/><path d="M1.04 3.9c0 .1-.04.2-.04.32 0 1.91 1.54 4.47 2.01 5.2.54.85 1.13 1.61 1.65 2.16.68.7 1.21 1.03 1.69 1.03s1.01-.33 1.69-1.03a15.2 15.2 0 0 0 1.65-2.15c.47-.74 2-3.3 2-5.21 0-.11-.02-.21-.03-.32a5.5 5.5 0 0 1-.21 1.3c-.15.53-.36 1.05-.58 1.53-.44.97-.95 1.8-1.18 2.17a15.2 15.2 0 0 1-1.65 2.15 4.9 4.9 0 0 1-.92.78c-.28.17-.53.25-.77.25s-.5-.08-.77-.25a4.76 4.76 0 0 1-.92-.78A14.41 14.41 0 0 1 3.01 8.9a19.2 19.2 0 0 1-1.18-2.17c-.22-.48-.43-1-.58-1.52a5.66 5.66 0 0 1-.21-1.31z" opacity=".5"/></svg>

<?xml version="1.0" encoding="UTF-8" standalone="no"?>
<svg
   xmlns:dc="http://purl.org/dc/elements/1.1/"
   xmlns:cc="http://creativecommons.org/ns#"
   xmlns:rdf="http://www.w3.org/1999/02/22-rdf-syntax-ns#"
   xmlns:svg="http://www.w3.org/2000/svg"
   xmlns="http://www.w3.org/2000/svg"
   xmlns:xlink="http://www.w3.org/1999/xlink"
   xmlns:sodipodi="http://sodipodi.sourceforge.net/DTD/sodipodi-0.dtd"
   xmlns:inkscape="http://www.inkscape.org/namespaces/inkscape"
   width="48"
   height="48"
   viewBox="0 0 12.7 12.7"
   version="1.1"
   id="svg34"
   sodipodi:docname="makehuman.svg"
   inkscape:version="0.92.4 (5da689c313, 2019-01-14)">
  <metadata
     id="metadata38">
    <rdf:RDF>
      <cc:Work
         rdf:about="">
        <dc:format>image/svg+xml</dc:format>
        <dc:type
           rdf:resource="http://purl.org/dc/dcmitype/StillImage" />
        <dc:title></dc:title>
      </cc:Work>
    </rdf:RDF>
  </metadata>
  <sodipodi:namedview
     pagecolor="#ffffff"
     bordercolor="#666666"
     borderopacity="1"
     objecttolerance="10"
     gridtolerance="10"
     guidetolerance="10"
     inkscape:pageopacity="0"
     inkscape:pageshadow="2"
     inkscape:window-width="1112"
     inkscape:window-height="480"
     id="namedview36"
     showgrid="false"
     inkscape:zoom="4.9166667"
     inkscape:cx="2.1355932"
     inkscape:cy="24"
     inkscape:window-x="0"
     inkscape:window-y="25"
     inkscape:window-maximized="0"
     inkscape:current-layer="svg34" />
  <defs
     id="defs24">
    <linearGradient
       id="d">
      <stop
         offset="0"
         stop-color="gray"
         id="stop2" />
      <stop
         offset="1"
         stop-color="#333"
         id="stop4" />
    </linearGradient>
    <linearGradient
       id="c">
      <stop
         offset="0"
         id="stop7" />
      <stop
         offset="1"
         stop-opacity="0"
         id="stop9" />
    </linearGradient>
    <linearGradient
       id="a">
      <stop
         offset="0"
         stop-color="#000003"
         id="stop12" />
      <stop
         offset="1"
         stop-color="#00000a"
         stop-opacity="0"
         id="stop14" />
    </linearGradient>
    <linearGradient
       id="b">
      <stop
         offset="0"
         stop-color="#000004"
         id="stop17" />
      <stop
         offset="1"
         stop-opacity="0"
         id="stop19" />
    </linearGradient>
    <linearGradient
       xlink:href="#c"
       id="f"
       gradientUnits="userSpaceOnUse"
       gradientTransform="matrix(1.15304,0,0,1.15304,-1.06,-0.34)"
       x1="2.87"
       y1=".48"
       x2="11.89"
       y2="11.63" />
    <radialGradient
       xlink:href="#d"
       id="e"
       cx="3.96"
       cy="3.14"
       fx="3.96"
       fy="3.14"
       r="5.35"
       gradientTransform="matrix(1.362,0.40614,-0.33453,1.12183,-0.38,-2.54)"
       gradientUnits="userSpaceOnUse" />
  </defs>
  <path
     d="m 6.82,0.1 a 6.75,6.75 0 0 0 -0.47,0 C 5.58,0.1 4.89,0.18 4.27,0.32 A 6.03,6.03 0 0 0 2.66,0.97 3.67,3.67 0 0 0 2.36,1.19 3.67,3.67 0 0 0 2.09,1.43 3.67,3.67 0 0 0 1.84,1.7 3.67,3.67 0 0 0 1.62,2 3.67,3.67 0 0 0 1.43,2.3 3.67,3.67 0 0 0 1.27,2.64 3.67,3.67 0 0 0 1.15,2.98 3.67,3.67 0 0 0 1.06,3.34 3.67,3.67 0 0 0 1.01,3.7 3.67,3.67 0 0 0 1,4.07 3.67,3.67 0 0 0 1,4.22 c 0,0.48 0.1,1 0.25,1.52 0.15,0.52 0.36,1.04 0.58,1.52 a 18.1,18.1 0 0 0 2.83,4.32 c 0.34,0.35 0.64,0.6 0.92,0.78 0.28,0.17 0.53,0.25 0.77,0.25 0.24,0 0.5,-0.08 0.77,-0.25 C 7.4,12.19 7.7,11.93 8.04,11.58 A 15.2,15.2 0 0 0 9.69,9.43 c 0.23,-0.37 0.73,-1.2 1.18,-2.17 0.22,-0.48 0.42,-1 0.57,-1.52 A 4.63,4.63 0 0 0 11.58,3.22 3.74,3.74 0 0 0 10.75,1.58 C 10.55,1.35 10.31,1.15 10.04,0.97 A 6.75,6.75 0 0 0 9.44,0.67 6.75,6.75 0 0 0 8.8,0.43 6.75,6.75 0 0 0 8.15,0.25 6.75,6.75 0 0 0 7.48,0.14 6.75,6.75 0 0 0 6.81,0.09 Z"
     id="path26"
     style="color:#000000;fill:url(#e)"
     inkscape:connector-curvature="0" />
  <path
     d="m 6.28,12.59 0.07,0.02 c 0.24,0 0.5,-0.08 0.77,-0.25 C 7.4,12.19 7.7,11.93 8.04,11.58 A 15.2,15.2 0 0 0 9.69,9.43 c 0.23,-0.37 0.73,-1.2 1.18,-2.17 0.22,-0.48 0.42,-1 0.57,-1.52 A 4.63,4.63 0 0 0 11.58,3.22 C 11.54,3.02 11.46,2.85 11.39,2.68 L 11.16,2.44 8.56,3.72 6.83,2 5.73,2.95 7.17,4.38 7.2,5.17 5.9,3.87 1.37,2.44 5.4,6.48 5.9,12.22 Z"
     id="path28"
     style="opacity:0.51000001;fill:url(#f)"
     inkscape:connector-curvature="0" />
  <path
     d="m 6.27,1.74 a 0.7,0.7 0 0 0 -0.7,0.7 0.7,0.7 0 0 0 0.7,0.7 0.7,0.7 0 0 0 0.7,-0.7 0.7,0.7 0 0 0 -0.7,-0.7 z m -4.9,0.7 z m 0,0 3.15,2.1 1.4,7.68 V 6.3 h 0.7 v 5.93 L 8.02,4.55 11.16,2.45 6.6,3.88 V 5.24 H 5.9 V 3.88 Z"
     id="path30"
     inkscape:connector-curvature="0"
     style="fill:#fd971f" />
  <path
     d="M 1.04,3.9 C 1.04,4 1,4.1 1,4.22 c 0,1.91 1.54,4.47 2.01,5.2 0.54,0.85 1.13,1.61 1.65,2.16 0.68,0.7 1.21,1.03 1.69,1.03 0.48,0 1.01,-0.33 1.69,-1.03 A 15.2,15.2 0 0 0 9.69,9.43 c 0.47,-0.74 2,-3.3 2,-5.21 0,-0.11 -0.02,-0.21 -0.03,-0.32 A 5.5,5.5 0 0 1 11.45,5.2 C 11.3,5.73 11.09,6.25 10.87,6.73 10.43,7.7 9.92,8.53 9.69,8.9 A 15.2,15.2 0 0 1 8.04,11.05 4.9,4.9 0 0 1 7.12,11.83 C 6.84,12 6.59,12.08 6.35,12.08 6.11,12.08 5.85,12 5.58,11.83 A 4.76,4.76 0 0 1 4.66,11.05 14.41,14.41 0 0 1 3.01,8.9 19.2,19.2 0 0 1 1.83,6.73 C 1.61,6.25 1.4,5.73 1.25,5.21 A 5.66,5.66 0 0 1 1.04,3.9 Z"
     id="path32"
     inkscape:connector-curvature="0"
     style="opacity:0.5" />
</svg>
